SVG_Azure_All/Identity and Access.svg

<?xml version="1.0" encoding="UTF-8" standalone="no"?>
<!-- Generated by Microsoft Visio, SVG Export Identity and Access.svg Page-1 -->

<svg
   xmlns:dc="http://purl.org/dc/elements/1.1/"
   xmlns:cc="http://creativecommons.org/ns#"
   xmlns:rdf="http://www.w3.org/1999/02/22-rdf-syntax-ns#"
   xmlns:svg="http://www.w3.org/2000/svg"
   xmlns="http://www.w3.org/2000/svg"
   xmlns:sodipodi="http://sodipodi.sourceforge.net/DTD/sodipodi-0.dtd"
   xmlns:inkscape="http://www.inkscape.org/namespaces/inkscape"
   width="0.70895213in"
   height="0.78737152in"
   viewBox="0 0 51.044776 56.690639"
   xml:space="preserve"
   class="st7"
   version="1.1"
   id="svg58"
   sodipodi:docname="Identity and Access.svg"
   style="font-size:12px;overflow:visible;color-interpolation-filters:sRGB;fill:none;fill-rule:evenodd;stroke-linecap:square;stroke-miterlimit:3"
   inkscape:version="0.92.5 (2060ec1f9f, 2020-04-08)"><metadata
   id="metadata62"><rdf:RDF><cc:Work
       rdf:about=""><dc:format>image/svg+xml</dc:format><dc:type
         rdf:resource="http://purl.org/dc/dcmitype/StillImage" /></cc:Work></rdf:RDF></metadata><sodipodi:namedview
   pagecolor="#ffffff"
   bordercolor="#666666"
   borderopacity="1"
   objecttolerance="10"
   gridtolerance="10"
   guidetolerance="10"
   inkscape:pageopacity="0"
   inkscape:pageshadow="2"
   inkscape:window-width="640"
   inkscape:window-height="480"
   id="namedview60"
   showgrid="false"
   inkscape:zoom="1.4534139"
   inkscape:cx="31.236237"
   inkscape:cy="35.830906"
   inkscape:window-x="0"
   inkscape:window-y="0"
   inkscape:window-maximized="0"
   inkscape:current-layer="svg58" />
	<style
   type="text/css"
   id="style2">
	<![CDATA[
		.st1 {fill:url(#grad0-6);stroke:none;stroke-linecap:butt;stroke-width:31.0734}
		.st2 {fill:#ffffff;fill-opacity:0.8;stroke:none;stroke-linecap:butt;stroke-width:31.0734}
		.st3 {fill:url(#grad0-12);stroke:none;stroke-linecap:butt;stroke-width:31.0734}
		.st4 {fill:#fbd118;stroke:none;stroke-linecap:butt;stroke-width:19.9105}
		.st5 {fill:#f78c1e;fill-opacity:0.4;stroke:none;stroke-linecap:butt;stroke-width:19.9105}
		.st6 {fill:#ffffff;fill-opacity:0.5;stroke:none;stroke-linecap:butt;stroke-width:19.9105}
		.st7 {fill:none;fill-rule:evenodd;font-size:12px;overflow:visible;stroke-linecap:square;stroke-miterlimit:3}
	]]>
	</style>

	<defs
   id="Patterns_And_Gradients">
		<linearGradient
   id="grad0-6"
   x1="-0.018850067"
   y1="117.27578"
   x2="36.970277"
   y2="117.27578"
   gradientTransform="scale(1.2667507,0.78942131)"
   gradientUnits="userSpaceOnUse">
			<stop
   offset="0.22"
   stop-color="#32d4f5"
   stop-opacity="1"
   id="stop4" />
			<stop
   offset="1"
   stop-color="#198ab3"
   stop-opacity="1"
   id="stop6" />
		</linearGradient>
		<linearGradient
   id="grad0-12"
   x1="0"
   y1="93.471469"
   x2="26.611474"
   y2="93.471469"
   gradientTransform="scale(0.98604836,1.014149)"
   gradientUnits="userSpaceOnUse">
			<stop
   offset="0.22"
   stop-color="#32d4f5"
   stop-opacity="1"
   id="stop9" />
			<stop
   offset="1"
   stop-color="#198ab3"
   stop-opacity="1"
   id="stop11" />
		</linearGradient>
	</defs>
	<g
   id="g56"
   transform="translate(-31.073722,-31.073688)">
		<title
   id="title15">Page-1</title>
		<g
   id="group4193-1"
   transform="translate(31.0976,-34.0157)">
			<title
   id="title17">Identity and Access</title>
			<g
   id="group4194-2"
   transform="translate(0,-3.6599)">
				<title
   id="title19">Icon-identity-230</title>
				<g
   id="shape4195-3">
					<title
   id="title21">path4</title>
					<path
   d="m 42.65,121.78 a 4.15374,4.2721 -180 0 0 4.16,-4.27 1.34639,1.38475 -180 0 0 0,-0.5 C 45.15,103.54 37.73,92.58 23.4,92.58 9.08,92.58 1.46,101.87 0,117.04 a 4.18239,4.30157 -180 0 0 3.75,4.74 z"
   class="st1"
   id="path23"
   inkscape:connector-curvature="0"
   style="fill:url(#grad0-6);stroke:none;stroke-width:31.0734005;stroke-linecap:butt" />
				</g>
				<g
   id="shape4196-7"
   transform="translate(16.2999,-9.25131)">
					<title
   id="title26">path6-1</title>
					<path
   d="M 7.1,105.02 A 13.1487,13.5234 0 0 1 0,102.87 l 7.1,18.91 6.99,-18.8 a 12.9769,13.3466 0 0 1 -6.99,2.04 z"
   class="st2"
   id="path28"
   inkscape:connector-curvature="0"
   style="fill:#ffffff;fill-opacity:0.8;stroke:none;stroke-width:31.0734005;stroke-linecap:butt" />
				</g>
				<g
   id="shape4197-9"
   transform="translate(10.3127,-26.0451)">
					<title
   id="title31">circle8</title>
					<ellipse
   cx="13.1201"
   cy="108.288"
   rx="13.1201"
   ry="13.494"
   class="st3"
   id="ellipse33"
   style="fill:url(#grad0-12);stroke:none;stroke-width:31.0734005;stroke-linecap:butt" />
				</g>
			</g>
			<g
   id="group4198-13"
   transform="translate(30.7409)">
				<title
   id="title37"> Dashboard_Identityaccess-pathf</title>
				<g
   id="shape4199-14">
					<title
   id="title39">path8</title>
					<path
   d="m 19.24,101.26 c 0.64,-0.7 1.04,-1.64 1.04,-2.68 0,-1.04 -0.4,-1.99 -1.04,-2.69 v 0.01 l -6.49,-6.68 c -0.68,-0.66 -1.6,-1.07 -2.61,-1.07 -1.01,0 -1.93,0.41 -2.61,1.07 v 0 L 1.04,95.9 C 0.4,96.59 0,97.54 0,98.58 c 0,1.04 0.4,1.98 1.05,2.68 H 1.04 l 5.6,5.75 v 11.24 l 3.44,3.53 2.93,-3.02 1.79,-1.83 -1.86,-1.82 1.79,-1.83 -1.66,-1.69 1.84,-1.89 -1.78,-1.83 v -0.51 z M 10.21,90.79 a 2.1586,2.22011 0 1 1 -2.16,2.3 v -0.02 c 0,-1.24 0.96,-2.24 2.15,-2.28 z"
   class="st4"
   id="path41"
   inkscape:connector-curvature="0"
   style="fill:#fbd118;stroke:none;stroke-width:19.91049957;stroke-linecap:butt" />
				</g>
				<g
   id="shape4200-16"
   transform="translate(8.29849,-2.74871)">
					<title
   id="title44">path10</title>
					<path
   d="m 0,120.48 1.4,1.3 V 111.06 L 0,110.41 Z"
   class="st5"
   id="path46"
   inkscape:connector-curvature="0"
   style="fill:#f78c1e;fill-opacity:0.4;stroke:none;stroke-width:19.91049957;stroke-linecap:butt" />
				</g>
				<g
   id="shape4201-18"
   transform="translate(3.84913,-19.7544)">
					<title
   id="title49">path12</title>
					<path
   d="m 0,117.09 h 12.2 v 1.82 H 0 Z m 0,2.86 h 12.2 v 1.83 H 0 Z"
   class="st6"
   id="path51"
   inkscape:connector-curvature="0"
   style="fill:#ffffff;fill-opacity:0.5;stroke:none;stroke-width:19.91049957;stroke-linecap:butt" />
				</g>
			</g>
		</g>
	</g>
</svg>

<?xml version="1.0" encoding="UTF-8" standalone="no"?>
<!DOCTYPE svg PUBLIC "-//W3C//DTD SVG 1.1//EN" "http://www.w3.org/Graphics/SVG/1.1/DTD/svg11.dtd">
<!-- Generated by Microsoft Visio, SVG Export Identity and Access.svg Page-1 -->
<svg xmlns="http://www.w3.org/2000/svg" xmlns:xlink="http://www.w3.org/1999/xlink" xmlns:ev="http://www.w3.org/2001/xml-events"
		width="1.51391in" height="1.69142in" viewBox="0 0 109.002 121.782" xml:space="preserve" color-interpolation-filters="sRGB"
		class="st7">
	<style type="text/css">
	<![CDATA[
		.st1 {fill:url(#grad0-6);stroke:none;stroke-linecap:butt;stroke-width:31.0734}
		.st2 {fill:#ffffff;fill-opacity:0.8;stroke:none;stroke-linecap:butt;stroke-width:31.0734}
		.st3 {fill:url(#grad0-12);stroke:none;stroke-linecap:butt;stroke-width:31.0734}
		.st4 {fill:#fbd118;stroke:none;stroke-linecap:butt;stroke-width:19.9105}
		.st5 {fill:#f78c1e;fill-opacity:0.4;stroke:none;stroke-linecap:butt;stroke-width:19.9105}
		.st6 {fill:#ffffff;fill-opacity:0.5;stroke:none;stroke-linecap:butt;stroke-width:19.9105}
		.st7 {fill:none;fill-rule:evenodd;font-size:12px;overflow:visible;stroke-linecap:square;stroke-miterlimit:3}
	]]>
	</style>

	<defs id="Patterns_And_Gradients">
		<linearGradient id="grad0-6" x1="0" y1="0" x2="1" y2="0" gradientTransform="rotate(90 0.5 0.5)">
			<stop offset="0.22" stop-color="#32d4f5" stop-opacity="1"/>
			<stop offset="1" stop-color="#198ab3" stop-opacity="1"/>
		</linearGradient>
		<linearGradient id="grad0-12" x1="0" y1="0" x2="1" y2="0" gradientTransform="rotate(85.405743437891 0.5 0.5)">
			<stop offset="0.22" stop-color="#32d4f5" stop-opacity="1"/>
			<stop offset="1" stop-color="#198ab3" stop-opacity="1"/>
		</linearGradient>
	</defs>
	<g>
		<title>Page-1</title>
		<g id="group4109-1" transform="translate(31.0976,-34.0157)">
			<title>Identity and Access</title>
			<g id="group4110-2" transform="translate(2.51799E-13,-3.6599)">
				<title>Icon-identity-230</title>
				<g id="shape4111-3">
					<title>path4</title>
					<path d="M42.65 121.78 A4.15374 4.2721 -180 0 0 46.81 117.51 A1.34639 1.38475 -180 0 0 46.81 117.01 C45.15 103.54
								 37.73 92.58 23.4 92.58 C9.08 92.58 1.46 101.87 0 117.04 A4.18239 4.30157 -180 0 0 3.75 121.78 L42.65
								 121.78 Z" class="st1"/>
				</g>
				<g id="shape4112-7" transform="translate(16.2999,-9.25131)">
					<title>path6-1</title>
					<path d="M7.1 105.02 A13.1487 13.5234 0 0 1 0 102.87 L7.1 121.78 L14.09 102.98 A12.9769 13.3466 0 0 1 7.1 105.02
								 Z" class="st2"/>
				</g>
				<g id="shape4113-9" transform="translate(10.3127,-26.0451)">
					<title>circle8</title>
					<ellipse cx="13.1201" cy="108.288" rx="13.1201" ry="13.494" class="st3"/>
				</g>
			</g>
			<g id="group4114-13" transform="translate(30.7409,2.84217E-13)">
				<title> Dashboard_Identityaccess-pathf</title>
				<g id="shape4115-14">
					<title>path8</title>
					<path d="M19.24 101.26 C19.88 100.56 20.28 99.62 20.28 98.58 C20.28 97.54 19.88 96.59 19.24 95.89 L19.24 95.9
								 L12.75 89.22 C12.07 88.56 11.15 88.15 10.14 88.15 C9.13 88.15 8.21 88.56 7.53 89.22 L7.53 89.22
								 L1.04 95.9 C0.4 96.59 0 97.54 0 98.58 C0 99.62 0.4 100.56 1.05 101.26 L1.04 101.26 L6.64 107.01
								 L6.64 118.25 L10.08 121.78 L13.01 118.76 L14.8 116.93 L12.94 115.11 L14.73 113.28 L13.07 111.59
								 L14.91 109.7 L13.13 107.87 L13.13 107.36 L19.24 101.26 ZM10.21 90.79 A2.1586 2.22011 0 1 1 8.05
								 93.09 L8.05 93.07 C8.05 91.83 9.01 90.83 10.2 90.79 L10.21 90.79 Z" class="st4"/>
				</g>
				<g id="shape4116-16" transform="translate(8.29849,-2.74871)">
					<title>path10</title>
					<path d="M0 120.48 L1.4 121.78 L1.4 111.06 L0 110.41 L0 120.48 Z" class="st5"/>
				</g>
				<g id="shape4117-18" transform="translate(3.84913,-19.7544)">
					<title>path12</title>
					<path d="M0 117.09 L12.2 117.09 L12.2 118.91 L0 118.91 L0 117.09 ZM0 119.95 L12.2 119.95 L12.2 121.78 L0 121.78
								 L0 119.95 Z" class="st6"/>
				</g>
			</g>
		</g>
	</g>
</svg>
